vultr.svg

<svg viewBox="0 0 24 24" xmlns="http://www.w3.org/2000/svg"><path d="M8.36 2.25514C8.14445 1.90248 7.76188 1.68634 7.34857 1.68372L1.2 1.68372C0.537258 1.68372 0 2.22097 0 2.88372C0 3.10994 0.0633436 3.33164 0.182857 3.52372L1.76571 5.84943L9.68 4.13514L8.36 2.25514Z" fill="#c9f4ff"/><path d="M9.71429 4.18086C9.4961 3.82811 9.11191 3.61227 8.69714 3.60943L2.57143 3.60943C2.12244 3.58872 1.69985 3.82184 1.4779 4.21268C1.25594 4.60351 1.27221 5.08587 1.52 5.46086L3.28571 8.26086L11.4629 6.98086L9.71429 4.18086Z" fill="#51b9ff"/><path d="M3.21143 8.14657C3.01054 7.82471 2.97043 7.42784 3.10286 7.07229C3.28654 6.60344 3.74224 6.29813 4.24571 6.30657L10.3714 6.30657C10.7865 6.30833 11.1712 6.52444 11.3886 6.878L16.8914 15.6037C17.0109 15.7958 17.0743 16.0175 17.0743 16.2437C17.0734 16.4698 17.0101 16.6913 16.8914 16.8837L13.8171 21.758C13.5958 22.1057 13.2122 22.3163 12.8 22.3163C12.3878 22.3163 12.0042 22.1057 11.7829 21.758L3.21143 8.14657ZM18.7086 10.9351C18.9299 11.2829 19.3135 11.4934 19.7257 11.4934C20.1379 11.4934 20.5215 11.2829 20.7429 10.9351L21.8 9.26086L23.8171 6.06086C23.9367 5.86878 24 5.64708 24 5.42086C23.9991 5.19476 23.9358 4.9733 23.8171 4.78086L22.2171 2.25514C21.999 1.90239 21.6148 1.68656 21.2 1.68372L15.0514 1.68372C14.7332 1.68372 14.4279 1.81014 14.2029 2.03519C13.9779 2.26023 13.8514 2.56546 13.8514 2.88372C13.8492 3.11106 13.9149 3.33389 14.04 3.52372L18.7086 10.9351Z" fill="#007bfc"/></svg>

<svg viewBox="0 0 24 24" xmlns="http://www.w3.org/2000/svg"><path d="M8.36 2.255a1.194 1.194 0 0 0-1.011-.571H1.2a1.2 1.2 0 0 0-1.017 1.84l1.583 2.325L9.68 4.135l-1.32-1.88Z" fill="#c9f4ff"/><path d="M9.714 4.18a1.206 1.206 0 0 0-1.017-.57H2.571A1.194 1.194 0 0 0 1.52 5.46l1.766 2.8 8.177-1.28-1.749-2.8Z" fill="#51b9ff"/><path d="M3.211 8.147a1.223 1.223 0 0 1-.108-1.075c.184-.469.64-.774 1.143-.765h6.125a1.2 1.2 0 0 1 1.018.571l5.502 8.726a1.212 1.212 0 0 1 0 1.28l-3.074 4.874a1.206 1.206 0 0 1-2.034 0L3.21 8.147Zm15.498 2.788a1.205 1.205 0 0 0 2.034 0L21.8 9.261l2.017-3.2a1.21 1.21 0 0 0 0-1.28l-1.6-2.526a1.205 1.205 0 0 0-1.017-.571h-6.149a1.2 1.2 0 0 0-1.2 1.2c-.002.227.064.45.189.64l4.669 7.411Z" fill="#007bfc"/></svg>
